X: 8
T: FLOWERS OF EDINBURGH
O: Cecil Sharp Mss
S: "Community Dances Manual 6", EFDSS, Jack Hamilton ed., 1981 p.3
R: reel
Z: 2010 John Chambers <jc:trillian.mit.edu>
M: 4/4
L: 1/8
K: G
"A"|: D2 |\
"G"G2G2 B2GB | "G"d2B2 "C"g3e | "G"d2B2 BAGA | "A7"B2G2 "D7"E2D2 |\
"G"G2G2 B2GB | "G"d2B2 "C"g3e | "G"d2B2 "D7"BAGA |1 "G"B2G2 G2 :|2 B2G2 G4 ||
"B"|:\
"Em"g4 "Bm"f3e | "Em"B2e2 e3f | "Em"g2g2 "Am"fagf | "Em"B2e2 e4 |\
"G"dBGB d2d2 | "C"e2ef g2e2 | "G"d2B2 "D7"BAGA | "G"B2G2 G4 :|

%%sep 2 1 500
%%sep 1 1 500

